X:1
T:FATIMA AVE
M:C
L:1/8
Q:80
C:
S:
K:HP
| {Gdc}d2{g}d2f2 | \
a2{g}a2f2 | \
a2{g}a2f2 |
{gef}e6 | \
{g}e2 | \
g2{f}g2e2 |
{g}f2{g}f2d2 | \
{g}e2{g}e2A2 | \
{Gdc}d6 |
A2{g}f4 | \
e2{Gdc}d4 | \
{g}d2e2g2 |
e4{gAd}A2 | \
a4g2 | \
f4{g}f2 | \
e2A2{g}fe |
{Gdc}d6 :|
